X:1
T:Title
%%score { 1 | ( 2 3 ) }
L:1/8
M:4/4
K:Eb
V:1 treble nm="Grand Piano"
V:2 bass 
V:3 bass 
V:1
 z4 z2[Q:1/4=112] E2 | G2 G2 G G2 [FA] | [GB][GB] [DAB]2 [EGB]4 | [Ge]4 [EG]4 |[M:3/4] [DF]6 | %5
[M:1/4] E2 |[M:4/4] G2 GG G3 [FA] | [GB][GB] [AB]2 [GB]4 | [Fd]4 [Ec]4 | [DB]6 z2 | [Ge]4 [Ae]4 | %11
 [Ge]2[K:bass] B,2 G,2 E,2 | d4 c4 | [DB]2 A,2 G,2 A2 | G2 A2 [GB]2 [Ee]2 | [Ee]4 [Ec]4 | %16
 [EB]2 [G,DG]2 [G,E]2 [CFA]2 |[M:9/8] [B,EG]3 [A,DF]3 [G,E]3 |] %18
V:2
 z4 z2 [E,G,]2 | [E,B,E]2 [E,B,E]2 [E,B,E] [E,B,E]2 [E,B,] | [E,E][E,E] B,,2 E,4 | %3
 [E,B,]4 [E,B,]4 |[M:3/4] [B,,B,]6 |[M:1/4] [E,G,]2 | %6
[M:4/4] [E,B,E]2 [E,B,E][E,B,E] [E,B,E]3 [E,B,] | [E,E][E,E] [F,D]2 [E,E]4 | [F,B,]4 [F,=A,]4 | %9
 [B,,B,]6 z2 | [E,B,]4 [A,C]4 | [E,B,]2 z2 z4 | [F,B,F]4 [F,=A,E]4 | [B,,B,]2 z2 z2 [F,B,D]2 | %14
 [B,E]2 [B,F]2 [E,E]2 [G,_D]2 | [A,C]4 [A,,A,]4 | [B,,G,]2 =B,,2 C,2 F,,2 |[M:9/8] B,,3 B,,3 E,3 |] %18
V:3
 x8 | x8 | x8 | x8 |[M:3/4] x6 |[M:1/4] x2 |[M:4/4] x8 | x8 | x8 | x8 | x8 | x8 | x8 | x8 | %14
 E,4 z4 | x8 | x8 |[M:9/8] x9 |] %18

